**kern	**kern
*staff2	*staff1
*clefF4	*clefG2
*k[b-e-]	*k[b-e-]
*M4/4	*M4/4
=	=
4BBB-' 4BB-'	4d' 4b-'
.	ccq
4r	(16b-LL
.	16a
.	16b-
.	16ccJJ)
4r	4b-'
4BB-' 4B-'	4b-' 4dd'
=2	=2
4FF' 4F'	4a' 4cc'
.	ggq
4r	(16ffLL
.	16ee
.	16ff
.	16ggJJ)
2r	4ff'
.	4r
=3	=3
4FF' 4F'	4a' 4cc'
4r	(16ccLL
.	16dd
.	16cc
.	16b-JJ)
4r	4a'
4F' 4c'	4a' 4ff'
=4	=4
4BB-' 4B-'	4b-' 4dd'
.	cccq
4r	(16bb-LL
.	16aa
.	16bb-
.	16cccJJ)
2r	4bb-'
.	4r
=5	=5
4E-' 4e-'	4b-' 4gg'
.	ccq
4r	(16b-LL
.	16a
.	16b-
.	16ccJJ)
4r	4b-'
4E-' 4e-'	4b-' 4gg'
=6	=6
4D' 4d'	4b-' 4ff'
.	ccq
4r	(16b-LL
.	16a
.	16b-
.	16ccJJ)
4r	4b-'
4BB-' 4B-'	4f' 4b-' 4dd'
=7	=7
4F'	4f' 4a' 4cc'
4BB-'	4f' 4b-' 4dd'
4F'	4f' 4a' 4cc'
4BB-'	4f' 4b-' 4dd'
=8	=8
4F	8aL 8cc
.	ggq
.	16ffL
.	16eeJJ
4F 4f	8ff'L
.	8aa'J
4C 4c	8ccL
.	b-q
.	16aL
.	16gJJ
4AA 4A	8a'L
.	8cc'J
=	=
*END	*END
*staff2	*staff1
*clefF4	*clefG2
*k[b-e-]	*k[b-e-]
*M4/4	*M4/4
=9	=9
4FF 4F	4f
4r	8r
.	8f
4.r	8fL
.	8f
.	8f
8f	8fJ
=10	=10
8eL	8gL
8c	8g
8f	8a
8e-J	8aJ
8dL	8b-L
8f	8b-
8A	8cc
8fJ	8ccJ
=11	=11
16B-LL	16ddLL
16A	16ee-
16B-	16dd
16cJJ	16ccJJ
4d	4b-
2r	4r
.	4dd 4ff
=12	=12
4BB- 4B-	4b- 4dd
4r	4b- 4dd
4FF 4F	4a 4cc
4r	4a 4cc
=13	=13
4BB- 4B-	(16ddLL
.	16ff
.	16ee
.	16ffJJ
4r	16ggLL
.	16ff
.	16ee
.	16ffJJ
4r	16ggLL
.	16ff
.	16ee
.	16ffJJ
4d 4f	16ggLL
.	16ff
.	16ee
.	16ffJJ)
=14	=14
4B- 4d	16ggLL
.	16ff
.	16ee
.	16ffJJ
4B- 4d	16ggLL
.	16ff
.	16ee
.	16ffJJ
4F 4c	16ggLL
.	16ff
.	16ee
.	16ffJJ
4F 4c	16ggLL
.	16ff
.	16ee
.	16ffJJ
=15	=15
4BB- 4D 4F 4B-	4b-
.	cccq
4BB- 4D 4F 4B-	(16bb-LL
.	16aa
.	16bb-
.	16cccJJ)
4BB- 4D 4F 4B-	4bb-
4r	4r
=	=
*END	*END
*staff2	*staff1
*clefG2	*clefG2
*k[b-e-]	*k[b-e-]
*M4/4	*M4/4
=16	=16
4B- 4d 4f	8b-L
.	8b
4r	8cc
.	8cc#J
4r	8ddL
.	8ee-
(4B- 4d 4f	8ee
.	8ffJ
=17	=17
4A) 4e- 4f	8ff#L
.	8gg
4r	8aa-
.	8aaJ
4r	8bb-L
.	8bb
(4A 4e- 4f	8ccc
.	8ccc#J
=18	=18
4c) 4e- 4f 4a	8dddL
.	8eee-
4r	8eee
.	8fffJ
4r	8eeeL
.	8fff
(4c 4e- 4f 4a	8eee
.	8fffJ
=19	=19
4B-) 4d 4f 4b-	8eeeL
.	8fff
4r	8eee-
.	8dddJ
4r	8cccL
.	8bb-
(4B- 4d 4f	8ddd
.	8bb-J
=20	=20
4B-) 4e- 4g	8aaL
.	8gg
4r	8ff#
.	8ggJ
4r	8aaL
.	8gg
(4B- 4e- 4g	8bb-
.	8ggJ
=21	=21
4B-) 4d 4f	8eeL
.	8ff
4r	8gg
.	8ffJ
4r	8ee-L
.	8dd
*clefF4	*
4B-' 4d' 4f'	8cc
.	8b-J
=22	=22
4A' 4f'	8ee-L
.	8cc
4B-' 4f'	8dd
.	8b-J
4A' 4f'	8ee-L
.	8cc
4B-' 4f'	8dd
.	8b-J
=23	=23
4F 4f	8ccL
.	8b-
4r	8a
.	8gJ
2r	8fL
.	8e-
.	8d
.	8cJ
=	=
*END	*END
*staff2	*staff1
*clefF4	*clefG2
*k[b-e-]	*k[b-e-]
*M4/4	*M4/4
=24	=24
8BB-L	4B-
8BB	.
8C	4r
8C#J	.
8DL	4r
8E-	.
8E	(4b- 4dd
8FJ	.
=25	=25
8F#L	4a') 4cc'
8G	.
8G#	4r
8AJ	.
8B-L	4r
8B	.
8c	([4a [4ff
8c#J	.
=26	=26
8dL	4a] 4ff]
8e-	.
8e	4a) 4ee-
8fJ	.
8eL	(4a' 4ee-'
8f	.
8e	4a') 4ee-'
8fJ	.
=27	=27
8eL	4b- 4dd
8f	.
8g	4r
8fJ	.
8e-L	2r
8d	.
8c	.
8B-J	.
=28	=28
*^	*
8AL	2E-	2r
8G	.	.
8F#	.	.
8GJ	.	.
2r	2r	(8B-L
.	.	8e-
.	.	8f#
.	.	8gJ)
*v	*v	*
=29	=29
1D 1B-	(8fL
.	8g
.	8a
.	8b-J
.	8ccL
.	8dd
.	8ee-
.	8ffJ)
=30	=30
4A 4f	(8ee-L
.	8cc
4B- 4f	8dd
.	8b-J
4A 4f	8ee-L
.	8cc
4B- 4f	8dd
.	8b-J)
=31	=31
4F 4f	(8ccL
.	8a
4r	8f
.	8cJ
4r	8AL
.	8FJ)
(8CL	4r
8AAJ)	.
=	=
*END	*END
*staff2	*staff1
*clefF4	*clefG2
*k[b-e-]	*k[b-e-]
*M4/4	*M4/4
=32	=32
*^	*
2r	[1FF	(8FL
.	.	8G
.	.	8A
.	.	8B-J
4r	.	8cL
.	.	8d
4F	.	8e
.	.	8fJ
=33	=33	=33
4E	1FF]	8f#L
.	.	8g
4E-	.	8a-
.	.	8aJ
4D	.	8b-L
.	.	8b
4C	.	8cc
.	.	8cc#J
=34	=34	=34
4BB-	1r	8ddL
.	.	8ee-
4r	.	8ee
.	.	8ffJ
2r	.	8ff#L
.	.	8gg
.	.	8aa-
.	.	8aaJ
=35	=35	=35
(2d	1F	8bb-L
.	.	8aa
.	.	8ccc
.	.	8bb-J
2c) 2e-	.	8aaL
.	.	8gg
.	.	8ff
.	.	8ee-J
=36	=36	=36
4d	4B-	8ddL
.	.	8ee-
4r	4r	8ee
.	.	8ffJ
2r	2r	8ggL
.	.	8ff
.	.	8ee-
.	.	8ddJ
=37	=37	=37
(2D	1FF	8ccL
.	.	8b-
.	.	8a
.	.	8gJ
2E-)	.	8fL
.	.	8e-
.	.	8d
.	.	8cJ
*v	*v	*
=38	=38
4BB- 4D	8B-L
.	8FJ
8r	8D)
8BB-	8r
4BBB-	2r
4r	.
=	=
*END	*END
*staff2	*staff1
*clefF4	*clefG2
*k[b-e-]	*k[b-e-]
*M4/4	*M4/4
=39	=39
*	*^
1BB-	16B-LL	(4B-
.	16f	.
.	16b-	.
.	16fJJ	.
.	16cLL	4c
.	16f	.
.	16b-	.
.	16fJJ	.
.	16c#LL	4c#
.	16f	.
.	16b-	.
.	16fJJ	.
.	16dLL	4d)
.	16f	.
.	16b-	.
.	16fJJ	.
=40	=40	=40
*^	*	*
(4F	1F	(4a	16aLL
.	.	.	16e-
.	.	.	16f
.	.	.	16e-JJ
4G	.	4b-	16b-LL
.	.	.	16e-
.	.	.	16f
.	.	.	16e-JJ
4G#	.	4b	16bLL
.	.	.	16e-
.	.	.	16f
.	.	.	16e-JJ
4A)	.	4cc)	16ccLL
.	.	.	16e-
.	.	.	16f
.	.	.	16e-JJ
=41	=41	=41	=41
1F	1FF	16cLL	(4c
.	.	16f	.
.	.	16a	.
.	.	16fJJ	.
.	.	16c#LL	4c#
.	.	16f	.
.	.	16a	.
.	.	16fJJ	.
.	.	16dLL	4d
.	.	16f	.
.	.	16a	.
.	.	16fJJ	.
.	.	16e-LL	4e-)
.	.	16f	.
.	.	16a	.
.	.	16fJJ	.
=42	=42	=42	=42
4r	1BB-	(4b-	16b-LL
.	.	.	16d
.	.	.	16f
.	.	.	16dJJ
[4A	.	4cc	16ccLL
.	.	.	16e-
.	.	.	16f
.	.	.	16e-JJ
4A]	.	4cc#	16cc#LL
.	.	.	16e-
.	.	.	16f
.	.	.	16e-JJ
4B-	.	4dd)	16ddLL
.	.	.	16d
.	.	.	16f
.	.	.	16dJJ
=43	=43	=43	=43
1B-	1E-	16gLL	(4g
.	.	16ee-	.
.	.	16gg	.
.	.	16ee-JJ	.
.	.	16a-LL	4a-
.	.	16ee-	.
.	.	16gg	.
.	.	16ee-JJ	.
.	.	16aLL	4a
.	.	16ee-	.
.	.	16gg	.
.	.	16ee-JJ	.
.	.	16b-LL	4b-)
.	.	16ee-	.
.	.	16gg	.
.	.	16ee-JJ	.
=44	=44	=44	=44
1B-	1BB-	(4ff	16ffLL
.	.	.	16b-
.	.	.	16dd
.	.	.	16b-JJ
.	.	4gg	16ggLL
.	.	.	16b-
.	.	.	16dd
.	.	.	16b-JJ
.	.	4aa	16aaLL
.	.	.	16b-
.	.	.	16dd
.	.	.	16b-JJ
.	.	4bb-)	16bb-LL
.	.	.	16b-
.	.	.	16dd
.	.	.	16b-JJ
*v	*v	*	*
*	*v	*v
=45	=45
4AA' 4F'	16ccc'LL
.	16ee-
.	16ff
.	16ee-JJ
4BB-' 4F'	16bb-'LL
.	16dd
.	16ff
.	16ddJJ
4AA' 4F'	16ccc'LL
.	16ee-
.	16ff
.	16ee-JJ
4BB-' 4F'	16bb-'LL
.	16dd
.	16ff
.	16dd-JJ
=46	=46
4FF 4F	16aaLL
.	16ff
.	16cc
.	16aJJ
4r	16fLL
.	16cc
.	16a
.	16fJJ
2r	16cLL
.	16a
.	16f
.	16cJJ
.	16ALL
.	16f
.	16c
.	16AJJ
=	=
*END	*END
*staff2	*staff1
*clefF4	*clefG2
*k[b-e-]	*k[b-e-]
*M4/4	*M4/4
=47	=47
*	*^
[1FF	16FLL	(4F
.	16c	.
.	16f	.
.	16cJJ	.
.	16GLL	4G
.	16c	.
.	16f	.
.	16cJJ	.
.	(16G#LL	4G#
.	16c)	.
.	16f	.
.	16cJJ	.
.	16ALL	4A)
.	16c	.
.	16f	.
.	16cJJ	.
=48	=48	=48
1FF]	16B-LL	(4B-
.	16e	.
.	16f	.
.	16eJJ	.
.	16GLL	4G
.	16e	.
.	16f	.
.	16eJJ	.
.	16cLL	4c
.	16e-	.
.	16f	.
.	16e-JJ	.
.	16ALL	4A)
.	16e-	.
.	16f	.
.	16e-JJ	.
=49	=49	=49
1BB-	(4f	16fLL
.	.	16B-
.	.	16d
.	.	16B-JJ
.	4g	16gLL
.	.	16B-
.	.	16d
.	.	16B-JJ
.	4a	16aLL
.	.	16B-
.	.	16d
.	.	16B-JJ
.	4b-)	16b-LL
.	.	16B-
.	.	16d
.	.	16B-JJ
=50	=50	=50
*^	*	*
(4F	1F	(4b	16bLL
.	.	.	16e-
.	.	.	16f
.	.	.	16e-JJ
4G	.	[4cc)	16ccLL
.	.	.	16e-
.	.	.	16f
.	.	.	16e-JJ
4G#	.	4cc]	16r
.	.	.	16e-LL
.	.	.	16f
.	.	.	16e-JJ
4A)	.	4cc	16ccLL
.	.	.	16e-
.	.	.	16f
.	.	.	16e-JJ
=51	=51	=51	=51
1B-	1BB- 1F	(4b-	16b-LL
.	.	.	16d
.	.	.	16f
.	.	.	16dJJ
.	.	4cc	16ccLL
.	.	.	16d
.	.	.	16f
.	.	.	16dJJ
.	.	4cc#	16cc#LL
.	.	.	16d
.	.	.	16f
.	.	.	16dJJ
.	.	4dd)	16ddLL
.	.	.	16d
.	.	.	16f
.	.	.	16dJJ
=52	=52	=52	=52
(4FF	1FF 1F	(2.ee-	16ee-LL
.	.	.	16e-
.	.	.	16f
.	.	.	16e-JJ
4GG	.	.	16r
.	.	.	16e-LL
.	.	.	16f
.	.	.	16e-JJ
4GG#	.	.	16r
.	.	.	16e-LL
.	.	.	16f
.	.	.	16e-JJ
4AA)	.	4cc)	16ccLL
.	.	.	16e-
.	.	.	16f
.	.	.	16e-JJ
*v	*v	*	*
*	*v	*v
=53	=53
4BB-	16b-LL
.	16dd
.	16b-
.	16fJJ
4r	16dLL
.	16B-
.	16F
.	16DJJ
4BBB- 4BB-	2r
4r	.
=	=
*END	*END
*staff2	*staff1
*clefF4	*clefG2
*k[b-e-]	*k[b-e-]
*M4/4	*M4/4
=54	=54
(8BB-	4r
4B-	.
.	4d 4f 4b-
4F	.
.	4d 4f 4b-
4D	.
.	4d 4f 4b-
[8BB-)	.
=55	=55
(8BB-]	4e- 4f 4b
4AA	.
.	4e- 4f 4cc
4GG	.
.	4e- 4f 4cc
4FF	.
.	4e- 4f 4cc
[8GG)	.
=56	=56
(8GG]	4e- 4f 4cc
4AA	.
.	4e- 4f 4a 4cc
4FF	.
.	4e- 4f 4a 4cc
4F	.
.	4f 4a 4cc
[8E-)	.
=57	=57
8E-]	4f 4a 4cc#
4D	.
.	4f 4b- 4dd
4C	.
.	4f 4b- 4dd
4BB-	.
.	4f 4b- 4dd
[8AA-	.
=58	=58
8AA-]	4g 4b- 4ee-
4GG	.
.	4ee- 4gg
4FF	.
.	4ee- 4gg
4EE-	.
.	4ee- 4gg
[8GG	.
=59	=59
8GG]	4ee- 4gg
4AA	.
.	4dd 4ff
4BB-	.
.	4cc 4ee-
4C	.
.	4b- 4dd
[8D	.
=60	=60
8D]	4b- 4cc
4E-	.
.	4b- 4cc
4E	.
.	4a 4cc
4F	.
.	4b- 4dd
[8E	.
=61	=61
8E]	4a 4cc
4F	.
.	4f
4F	.
.	4a
4C	.
.	4cc
[8AA	.
=	=
*END	*END
*staff2	*staff1
*clefF4	*clefG2
*k[b-e-]	*k[b-e-]
*M4/4	*M4/4
=62	=62
8AA]	4f 4ff
4FF	.
.	4c 4cc
4F	.
.	4A 4a
4F	.
.	4f
[8F	.
=63	=63
8F]	4G 4g
4E	.
.	4A 4a
4E-	.
.	4B- 4b-
4D	.
.	4c 4cc
[8C	.
=64	=64
8C]	4d 4dd
4BB-	.
.	4f 4ff
4D	.
.	4b- 4bb-
4F	.
.	4dd 4ddd
[8B-	.
=65	=65
8B-]	4ff 4fff
4F	.
.	4dd 4ddd
4B-	.
.	4ee- 4eee-
4F	.
.	4cc 4ccc
[8A	.
=66	=66
8A]	4dd 4ddd
4B-	.
.	4b- 4bb-
4F	.
.	4f 4ff
4D	.
.	4d 4dd
[8BB-	.
=67	=67
8BB-]	4f 4ff
4FF	.
.	4d 4dd
4BB-	.
.	4e- 4ee-
4FF	.
.	4c 4cc
[8AA	.
=68	=68
8AAL]	4B- 4b-
8BB-	.
8FF	4r
8DDJ	.
4BBB-	2r
4r	.
=	=
*END	*END
*staff2	*staff1
*clefF4	*clefG2
*k[b-e-]	*k[b-e-]
*M4/4	*M4/4
=69	=69
4BBB- 4BB-	12DL
.	12F
.	12B-J
4r	12dL
.	12f
.	12b-J
2r	(12ccL
.	12a
.	12b-J
.	12ccL
.	12a
.	12b-J)
=70	=70
4F 4c 4e-	(12ddL
.	12b
.	12ccJ
4r	12ee-L
.	12b
.	12ccJ)
2r	(12ddL
.	12b
.	12ccJ
.	12ee-L
.	12b
.	12ccJ)
=71	=71
12FFL	4r
12AA	.
12CJ	.
4F	12AL
.	12c
.	12e-J
2r	12fL
.	12a
.	12ccJ
.	12ee-L
.	12b
.	12ccJ
=72	=72
4B- 4d 4f	(12ee-L
.	12cc#
.	12ddJ
4r	12ffL
.	12cc#
.	12ddJ)
2r	(12ee-L
.	12cc#
.	12ddJ
.	12ffL
.	12cc#
.	12ddJ)
=73	=73
12BBB-'L	4r
12EE-'	.
12GG'J	.
12BB-'L	[2.ee- [2.gg
12E-'	.
12G'J	.
12B-'L	.
12e-'	.
12g'J	.
4b-	.
=74	=74
12BBB-'L	4ee-] 4gg]
12DD'	.
12FF'J	.
12BB-'L	2.dd 2.ff
12D'	.
12F'J	.
12B-'L	.
12d'	.
12f'J	.
4b-	.
=75	=75
*^	*
(4c 4e-	2F	12fL
.	.	12a
.	.	12ccJ
4B-) 4d	.	12ffL
.	.	12bb-
.	.	12dddJ
(4c 4e-	2F	12ffL
.	.	12aa
.	.	12cccJ
4B-) 4d	.	12ffL
.	.	12bb-
.	.	12dddJ
*v	*v	*
=76	=76
4F 4A 4c	12fffL
.	12ccc
.	12aaJ
4r	12ffL
.	12cc
.	12aJ
4r	12fL
.	12c
.	12AJ
12FL	4r
12C	.
12AAJ	.
=	=
*END	*END
*staff2	*staff1
*clefF4	*clefG2
*k[b-e-]	*k[b-e-]
*M4/4	*M4/4
=77	=77
*^	*
2r	[1FF	12FL
.	.	12A
.	.	12cJ
.	.	12fL
.	.	12a
.	.	12ccJ
4r	.	12ff'L
.	.	12f
.	.	12aJ
(4F	.	12ff'L
.	.	12f
.	.	12aJ
=78	=78	=78
4E	1FF]	12ff'L
.	.	12g
.	.	12b-J
4E-	.	12ff'L
.	.	12a
.	.	12ccJ
4D	.	12ff'L
.	.	12b-
.	.	12ddJ
4C	.	12ff'L
.	.	12a
.	.	12ee-J
=79	=79	=79
4BB-)	4BB-	12ff'L
.	.	12b-
.	.	12ddJ
4r	4r	12bb-'L
.	.	12dd
.	.	12ffJ
2r	2r	12ddd'L
.	.	12ff
.	.	12bb-J
.	.	12fff'L
.	.	12bb-
.	.	12dddJ
*v	*v	*
=80	=80
4r	12fffL
.	12bb-
.	12dddJ
4d'	12ffL
.	12ddd
.	12bb-J
4e-'	12ggL
.	12ccc
.	12bb-J
4f'	12ffL
.	12ccc
.	12aaJ
=81	=81
4B-	12dddL
.	12ff
.	12bb-J
4r	12ddL
.	12ff
.	12b-J
2r	12ddL
.	12f
.	12b-J
.	12ffL
.	12b-
.	12ddJ
=82	=82
4r	12ffL
.	12b-
.	12ddJ
4D'	12fL
.	12dd
.	12b-J
4E-'	12gL
.	12cc
.	12b-J
4F'	12fL
.	12cc
.	12aJ
=83	=83
4BB-	12b-L
.	12f
.	12dJ
4r	12B-L
.	12F
.	12DJ
4BBB- 4BB-	2r
4r	.
=	=
*END	*END
*staff2	*staff1
*clefF4	*clefG2
*k[b-e-]	*k[b-e-]
*M4/4	*M4/4
=84	=84
*k[b-e-a-d-g-]	*k[b-e-a-d-g-]
*^	*^
(8B-L	1BB-	(4.b-	2d- 2f
8F	.	.	.
8B-	.	.	.
8FJ	.	8cc	.
8B-L	.	4.dd-	2d- 2f
8F	.	.	.
8B-	.	.	.
8FJ)	.	8b-)	.
=85	=85	=85	=85
(8E-L	1BB- 1A	(4.cc	1e- 1g- 1a
8F	.	.	.
8E-	.	.	.
8FJ	.	8dd-	.
8E-L	.	4ee-)	.
8F	.	.	.
8E-	.	4r	.
8FJ)	.	.	.
=86	=86	=86	=86
(8E-L	1BB- 1A	(4.cc	2e- 2g- 2a
8F	.	.	.
8E-	.	.	.
8FJ	.	8dd-	.
8E-L	.	4.ee-	2e- 2g- 2a
8F	.	.	.
8E-	.	.	.
8FJ)	.	8cc)	.
=87	=87	=87	=87
(8D-L	1BB- 1B-	(4.dd-	[2f [2b-
8F	.	.	.
8D-	.	.	.
8FJ	.	8ee-	.
8D-L	.	4ff)	4f] 4b-]
8F	.	.	.
8D-	.	8r	4r
8FJ)	.	(8ff	.
=88	=88	=88	=88
(8E-L	1BB- 1B-	4.gg-	[2g-
8G-	.	.	.
8E-	.	.	.
8G-J	.	8cc-)	.
8E-L	.	4.b-	4.g-]
8G-	.	.	.
8E-	.	.	.
8G-J)	.	(8gg-	8g-
=89	=89	=89	=89
(8D-L	1BB- 1B-	4.ff	[2f
8F	.	.	.
8D-	.	.	.
8FJ	.	8a)	.
8D-L	.	4.b-	4.f]
8F	.	.	.
8D-	.	.	.
*	*	*v	*v
8BB-J)	.	(8e 8ee
=90	=90	=90
(8AAL 8C	2FF	4.f) 4.ff
8F	.	.
8BB- 8D-	.	.
8FJ)	.	(8e 8ee
(8AAL 8C	2FF	4.f) 4.ff
8F	.	.
8BB- 8D-	.	.
8FJ)	.	(8e 8ee
*v	*v	*
=91	=91
8FFL 8AA 8C	4f) 4ff
(8F	.
8E	4r
8FJ	.
8EL	4.r
8F	.
8E	.
8FJ)	8f
=	=
*END	*END
*staff2	*staff1
*clefF4	*clefG2
*k[b-e-a-d-g-]	*k[b-e-a-d-g-]
*M4/4	*M4/4
=92	=92
(8G-L	(8g-L
8F	8f
8G-	8g-
8FJ	8fJ
8G-L	8g-L
8F	8f
8G-	8g-
8FJ)	8fJ)
=93	=93
(8E-L	(4.g-
8F	.
8E-	.
8FJ	8A 8a
8E-L	4.B- 4.b-
8F	.
8E-	.
8FJ)	8c) 8cc
=94	=94
*^	*
(8D-L	1BB-	(4.d- 4.dd-
8F	.	.
8D-	.	.
8FJ	.	8c 8cc
8D-L	.	4.d- 4.dd-
8F	.	.
8D-	.	.
8FJ)	.	8e) 8ee
=95	=95	=95
(8AAL 8C	1FF	(4.f 4.ff
8F	.	.
8AA 8C	.	.
8FJ)	.	8e 8ee
(8CL 8E-	.	4.f 4.ff
8F	.	.
8C 8E-	.	.
8FJ)	.	8f) 8ff
=96	=96	=96
(8D-L	1BB-	(4.b- 4.bb-
8F	.	.
8D-	.	.
8FJ	.	8cc 8ccc
8D-L	.	4.dd- 4.ddd-
8F	.	.
8D-	.	.
8FJ)	.	8ee) 8eee
=97	=97	=97
(8AAL 8C	1FF	(4.ff 4.fff
8F	.	.
8AA 8C	.	.
8FJ	.	8ee 8eee
8CL 8E-	.	4.ff 4.fff
8F	.	.
8C 8E-	.	.
8FJ)	.	8ff) 8fff
=98	=98	=98
(8D-L	2BB-	4b- 4bb-
8F	.	.
8D-	.	4r
8FJ)	.	.
4BB-	4BB-	2r
4r	4r	.
*v	*v	*
=	=
*END	*END
*staff2	*staff1
*clefF4	*clefG2
*k[b-e-]	*k[b-e-]
*M4/4	*M4/4
=99	=99
2r	2BB-
2r	[2D
=100	=100
*^	*
2F	8DL]	1r
.	16CL	.
.	16DJJ	.
.	8E-'L	.
.	8D'J	.
[2e-	8C'L	.
.	8BB-'	.
.	8AA'	.
.	8GG'J	.
=101	=101	=101
*	*	*^
4e-]	4FF	1r	2cc
8d'L	4r	.	.
8c'J	.	.	.
8B-'L	2r	.	[2ee-
8A'	.	.	.
8G'	.	.	.
8F'J	.	.	.
*v	*v	*	*
=102	=102	=102
4B-	2ff	4ee-]
4r	.	8dd'L
.	.	8cc'J
2r	[2bb-	8cc-'L
.	.	8b-'
.	.	8a'
.	.	8a-'J
*	*v	*v
=103	=103
1e- 1g	4gg 4bb-]
.	(8ff#L 8aa
.	8ggJ 8bb-
.	8aaL 8ccc
.	8gg) 8bb-
.	8ff' 8aa'
.	8ee-'J 8gg'
=104	=104
1d 1f	8dd'L 8ff'
.	8ee-' 8gg'
.	8ff' 8aa'
.	8gg'J 8bb-'
.	8aa'L 8ccc'
.	8bb-' 8ddd'
.	8ccc' 8eee-'
.	[8dddJ [8fff
=105	=105
4A' 4f'	8ddd] 8fff]
.	4ccc 4eee-
4B-' 4f'	.
.	4bb- 4ddd
4F' 4f'	.
.	4aa 4ccc
4B-' 4f'	.
.	8bb- 8ddd
=106	=106
4F 4f	8aa'L 8ccc'
.	8aa'
4r	8ff'
.	8cc'J
2r	8a'L
.	8f'
.	8c'
.	8A'J
=	=
*END	*END
*staff2	*staff1
*clefF4	*clefG2
*k[b-e-]	*k[b-e-]
*M4/4	*M4/4
=107	=107
4.FF	4F
.	4r
8F	.
8FL	2r
8F	.
8F	.
8FJ	.
=108	=108
4E' 4G'	4.F
4E-' 4A'	.
.	8f
4D' 4B-'	8fL
.	8f
4C' 4c'	8f
.	8fJ
=109	=109
4BB- 4B-	4.d 4.b-
4c' 4e-'	.
.	8bb-
4d' 4f'	8bb-L
.	8bb-
4e-' 4g'	8bb-
.	8bb-J
=110	=110
4.F	4dd' 4ff'
.	4b' 4dd'
8f	.
8fL	4cc' 4ee-'
8f	.
8f	4a' 4cc'
8fJ	.
=111	=111
4B-	4b-' 4dd'
4r	4dd' 4ff'
2r	4ff' 4bb-'
.	4bb-' 4ddd'
=112	=112
4.FF	4ddd' 4fff'
.	4bb' 4ddd'
8F	.
8FL	4ccc' 4eee-'
8F	.
8F	4aa' 4ccc'
8FJ	.
=113	=113
4BB-	4bb-
4r	4b-
4BBB-	2r
4r	.
=	=
*END	*END
*staff2	*staff1
*clefF4	*clefG2
*k[b-e-]	*k[b-e-]
*M4/4	*M4/4
=114	=114
4BBB-	(8BB-L
.	16CL
.	16DJJ
4r	16E-LL
.	16F
.	16G
.	16AJJ
2r	16B-LL
.	16c
.	16d
.	16e-JJ
.	16fLL
.	16g
.	16a
.	16b-JJ)
=115	=115
1r	8cc'L
.	8dd'
.	8ee-'
.	8ee'J
.	8ff'L
.	8ff#'
.	8gg'
.	8aa'J
=116	=116
*	*^
(8FFL	(4bb-	2.cc 2.ee-
16GGL	.	.
16AAJJ	.	.
16BB-LL	2aa)	.
16C	.	.
16D	.	.
16EJJ)	.	.
8F'L	.	.
8G'	.	.
*	*v	*v
8A'	[4ccc
8B-'J	.
=117	=117
8c'L	4ccc]
8d'	.
8e-'	(2ee-
8f'J	.
8f#'L	.
8g'	.
8a'	4dd)
8b-'J	.
=118	=118
4e-	8gg'L
.	(16ffL
.	16ee-JJ
4r	16ddLL
.	16cc
.	16b-
.	16aJJ
2r	16gLL
.	16f
.	16e-
.	16dJJ
.	16cLL
.	16B-
.	16A
.	16GJJ)
=119	=119
8dL	4F'
(16cL	.
16B-JJ	.
16ALL	4f' 4ff'
16G	.
16F	.
16E-JJ	.
16DLL	4r
16C	.
16BB-	.
16AAJJ	.
16GGLL	4ff 4fff
16FF	.
16EE-	.
16DDJJ)	.
=120	=120
4CC'	16eee-LL
.	16ddd
.	16ccc
.	16bb-JJ
4FF'	16aaLL
.	16gg
.	16ff
.	16ee-JJ
4BBB-'	16ddLL
.	16cc
.	16b-
.	16aJJ
4FF'	16gLL
.	16f
.	16e-
.	16dJJ
=121	=121
4FFF	16cLL
.	16f
.	16c
*	*clefF4
.	16AJJ
4r	16FLL
.	16c
.	16A
.	16FJJ
2r	16CLL
.	16A
.	16F
.	16CJJ
.	16AALL
.	16F
.	16C
.	16AAJJ
=	=
*END	*END
*staff2	*staff1
*clefF4	*clefG2
*k[b-e-]	*k[b-e-]
*M4/4	*M4/4
=122	=122
*^	*
2r	4FFF	8FFL
.	.	16GGL
.	.	16AAJJ
.	[2.FF	16BB-LL
.	.	16C
.	.	16D
.	.	16EJJ
*	*	*clefG2
4r	.	16FLL
.	.	16G
.	.	16A
.	.	16B-JJ
(4F	.	16cLL
.	.	16d
.	.	16e
.	.	16fJJ
=123	=123	=123
4E	1FF]	16G'LL
.	.	(16g
.	.	16f#
.	.	16gJJ)
4E-	.	16A'LL
.	.	(16a
.	.	16g#
.	.	16aJJ)
4D	.	16B-'LL
.	.	(16b-
.	.	16a
.	.	16b-JJ)
4C	.	16c'LL
.	.	(16cc
.	.	16b
.	.	16ccJJ)
=124	=124	=124
4BB-)	4BB-	16d'LL
.	.	(16dd
.	.	16cc#
.	.	16ddJJ)
4r	4r	16f'LL
.	.	(16ff
.	.	16ee
.	.	16ffJJ)
2r	2r	16b-'LL
.	.	(16bb-
.	.	16aa
.	.	16bb-JJ)
.	.	16dd'LL
.	.	(16ddd
.	.	16ccc#
.	.	16dddJJ)
*v	*v	*
=125	=125
16D'LL	8ffL 8fff
(16d	.
16c#	8bb-J 8ddd
16dJJ)	.
16E-'LL	8r
(16e-	.
16d	8bb- 8ddd
16e-JJ)	.
16E'LL	8r
(16e	.
16d#	8bb- 8ccc
16eJJ)	.
16F'LL	8r
(16f	.
16e	8aa 8ccc
16fJJ)	.
=126	=126
4BB- 4B-	16dd'LL
.	(16ddd
.	16ccc#
.	16dddJJ)
4r	16b-'LL
.	(16bb-
.	16aa
.	16bb-JJ)
2r	16f'LL
.	(16ff
.	16ee
.	16ffJJ)
.	16d'LL
.	(16dd
.	16cc#
.	16ddJJ)
=127	=127
*	*clefF4
16DD'LL	8r
(16D	.
16C#	8B- 8d
16DJJ)	.
16EE-'LL	8r
(16E-	.
16D	8B- 8d
16E-JJ)	.
16EE'LL	8r
(16E	.
16D#	8B- 8c
16EJJ)	.
16FF'LL	8r
(16F	.
16E	8A 8c
16FJJ)	.
=128	=128
16BBB-'LL	4B-
(16BB-	.
16AA	.
16BB-JJ	.
16AALL	4r
16BB-	.
16FF	.
16DDJJ)	.
4BBB-	2r
4r	.
=	=
*END	*END
*staff2	*staff1
*clefG2	*clefG2
*k[b-e-]	*k[b-e-]
*M4/4	*M4/4
=129	=129
*	*^
1b- 1dd	(2bb-	1ff
.	4.ddd	.
.	8ccc)	.
=130	=130	=130
2.cc 2.ee-	(4.bb-	2.ff
.	8aa	.
.	4eee-')	.
4r	4r	4r
*clefF4	*	*
=131	=131	=131
1F 1e-	(2cc	1a
.	4.ee-	.
.	8dd)	.
=132	=132	=132
2.B- 2.d	(4.cc	2.f
.	8b-	.
.	4ff')	.
4r	4r	4r
*	*v	*v
=133	=133
1EE- [1BB-	(2G
.	4.B-
.	8G)
=134	=134
4DD 4BB-]	4F
(4D 4F	(4B- 4f
4C 4F	4A 4e-
4BB-) 4F	4B-) 4d
=135	=135
*^	*
(4.F	1FF	(4.A 4.c
8E)	.	8B-) 8d
(4.F	.	(4.A 4.c
8E)	.	8B-) 8d
*v	*v	*
=136	=136
(8.FL	4A 4c
16GJk	.
8.E-L	4r
16FJk	.
8.DL	2r
16E-Jk	.
8.CL	.
16DJk)	.
=	=
*END	*END
*staff2	*staff1
*clefF4	*clefG2
*k[b-e-]	*k[b-e-]
*M4/4	*M4/4
=137	=137
(2BB-	1r
4.D	.
8C)	.
=138	=138
(4.BB-	[2ee-
8AA	.
4F')	(12ee-L]
.	12cc
.	12aJ)
4r	(12fL
.	12e-
.	12cJ)
=139	=139
(2E-	(4B-
.	4A)
4.G	2r
8F)	.
=140	=140
(4.E-	[2aa-
8D	.
4B-')	(12aa-L]
.	12ff
.	12ddJ)
4r	(12b-L
.	12cc
.	12a-J)
=141	=141
(2E- [2B-	(2g
4.G 4.B-]	4.b-
8E-) 8B-	8g)
=142	=142
4D 4B-	4f
(4d 4f	(4b- 4ff
4c 4f	4a 4ee-
4B-) 4f	4b-) 4dd
=143	=143
*^	*
(4.f	[1F	(4.a 4.cc
8e)	.	8b-) 8dd
(4.f	.	(4.a 4.cc
8e)	.	8b-) 8dd
*v	*v	*
=144	=144
88f 8FL]	8aL 8cc
(8F	(8f
8E	8e
8FJ	8fJ
8EL	8eL
8F	8f
8C	8c
8AAJ)	8AJ)
=	=
*END	*END
*staff2	*staff1
*clefF4	*clefG2
*k[b-e-]	*k[b-e-]
*M4/4	*M4/4
=145	=145
2FF	2F
(4..AA	(4..A
16FF)	16F)
=146	=146
(8.BB-L	(8.B-L
16GGJk	16GJk
8.CL	8.cL
16AAJk	16AJk
8.DL	8.dL
16BB-Jk	16B-Jk
8.E-L	8.e-L
16CJk)	16cJk)
=147	=147
4D 4F	(8.fL
.	16dJk
4r	8.b-L
.	16fJk
2r	8.ddL
.	16b-Jk)
.	([4ff
=148	=148
*^	*^
(2d	1F	2ff]	2b-
4.e-	.	4.gg	2a
8c)	.	8ee-)	.
*v	*v	*v	*v
=149	=149	=149
4d 4B-	(8.ddL
.	16ffJk
4r	8.bb-L
.	16ffJk
2r	8.dddL
.	16bb-Jk)
.	([4fff
*clefG2	*
=150	=150
*^	*^
(2dd	1f	2fff]	2bb-
4.cc	.	4.eee-	2aa
8ee-)	.	8ccc	.
=151	=151	=151	=151
4.dd	4b-	4bb-)	4bb-
*clefF4	*clefF4	*	*
.	4r	4r	4r
8B-	.	.	.
4BB-	2r	2r	2r
4r	.	.	.
*v	*v	*	*
*	*v	*v
=	=
*END	*END
*staff2	*staff1
*clefF4	*clefG2
*k[b-e-]	*k[b-e-]
*M4/4	*M4/4
=152||	=152||
*	*^
.	aq	.
16r	4b-'	4r
(16B-LL	.	.
16F	.	.
16DJJ)	.	.
4BB-'	4r	4d 4f
.	aq	.
16r	4b-'	4r
(16B-LL	.	.
16F	.	.
16DJJ)	.	.
4BB-'	4r	4d 4f
=153	=153	=153
.	bq	.
16r	4cc'	4r
(16FLL	.	.
16C	.	.
16AAJJ)	.	.
4FF'	4r	4e- 4f 4a
2r	2ff	2r
=154	=154	=154
.	bq	.
16r	4cc'	4r
(16FLL	.	.
16C	.	.
16AAJJ)	.	.
4FF'	4r	4e- 4f 4a
.	bnq	.
16r	4cc'	4r
(16FLL	.	.
16C	.	.
16AAJJ)	.	.
4FF'	4r	4e- 4f 4a
=155	=155	=155
.	cc#q	.
16r	4dd'	4r
(16BB-LL	.	.
16FF	.	.
16DDJJ)	.	.
4BBB-'	4r	4d 4f 4b-
2r	2bb-	2r
=156	=156	=156
.	aq	.
16r	4b-'	4r
(16B-LL	.	.
16G	.	.
16E-JJ)	.	.
4BB-'	4r	4e- 4g
2r	2bb-	2r
=157	=157	=157
.	aq	.
16r	4b-'	4r
(16B-LL	.	.
16F	.	.
16DJJ)	.	.
4BB-'	4r	4d 4f
2r	2bb-	2r
*	*v	*v
=158	=158
[1FF	4ff' 4aa' 4ccc' 4fff'
.	4ff' 4bb-' 4ddd' 4fff'
.	4ff' 4aa' 4ccc' 4fff'
.	4ff' 4bb-' 4ddd' 4fff'
=159	=159
(4.FF]	4ff' 4aa' 4ccc' 4fff'
.	4r
16EELL	.
16FFJJ)	.
8AA'L	2r
8FF'	.
8CC'	.
8AAA'J	.
=	=
*END	*END
*staff2	*staff1
*clefF4	*clefG2
*k[b-e-]	*k[b-e-]
*M4/4	*M4/4
=160	=160
*	*^
.	eq	.
16r	4f'	4r
(16FFFLL	.	.
16AAA	.	.
16CCJJ)	.	.
4FF'	4r	4F 4A
.	enq	.
16r	4f'	4r
(16FFLL	.	.
16AA	.	.
16CJJ)	.	.
4F'	4r	4F 4A
=161	=161	=161
.	enq	.
8r	4f'	8r
8FF 8E	.	8G 8B-
.	enq	.
8r	4f'	8r
8FF 8E-	.	8A 8c
.	enq	.
8r	4f'	8r
8FF 8D	.	8B- 8d
.	enq	.
8r	4f'	8r
8FF 8C	.	8A 8e-
*	*v	*v
=162	=162
.	enq
4BBB- 4BB-	8f'L
.	8B-'J 8d'
.	anq
4r	8b-'L
.	8d'J 8f'
.	cc#q
2r	8dd'L
.	8f'J 8b-'
.	eeq
.	8ff'L
.	eeq
.	8ff'J
=163	=163
.	eeq
4r	1ff
4F 4B- 4d	.
4r	.
4F 4c 4e-	.
=164	=164
.	eenq
4r	8ff'L
.	8b-'J 8dd'
.	aanq
4B- 4d	8bb-'L
.	8dd'J 8ff'
.	ccc#q
2r	8ddd'L
.	8ff'J 8bb-'
.	eeeq
.	8fff'L
.	eeeq
.	8fff'J
=165	=165
1FF	4r
.	4ff 4bb- 4ddd 4fff
.	4r
.	4ff 4aa 4ccc 4fff
=166	=166
4BBB- 4BB-	4.bb-
4r	.
.	16aaLL
.	16bb-JJ
2r	4b-
.	4r
=	=
*END	*END
*staff2	*staff1
*clefF4	*clefG2
*k[b-e-]	*k[b-e-]
*M3/8	*M3/8
=-	=-
*	*^
8r	8f	.
=168	=168	=168
4BB- 4F 4B-	(8fL	4d
.	8b-)	.
8BB- 8F 8B-	8b-'J	8d
=169	=169	=169
.	ccq	.
4BB- 4F 4B-	(16b-LL	4d
.	16a	.
.	16b-	.
.	16ccJ)	.
8BB- 8F 8B-	8dd'J	8d
=170	=170	=170
4BB- 4E- 4F 4A	8b	8e-
.	([4cc	[4e-
8BB- 8E- 8F 8A	.	.
=171	=171	=171
4BB- 4E- 4F 4A	8ccL]	8e-L]
.	8f)	8e-
8BB- 8E- 8F 8A	8f'J	8e-J
=172	=172	=172
4BB- 4E- 4F 4A	(8fL	4e-
.	8cc)	.
8BB- 8E- 8F 8A	8cc'J	8e-
*	*v	*v
=173	=173
4BB- 4E- 4F 4A	(16ddLL
.	16cc
.	16b
.	16ccJ)
8BB- 8E- 8F 8A	8ff'J
=174	=174
4BB- 4D 4F 4B-	8cc#
.	([4d [4dd
8BB- 8D 8F 8B-	.
=175	=175
4BB- 4D 4F 4B-	8dL] 8dd]
.	8b-)
8BB- 8D 8F 8B-	8b-'J
=176	=176
.	16ccq
.	16b-q
.	16aq
4BB- 4E- 4G	(8b-L
.	8ee-J)
8BB- 8E- 8G	16r
.	16ee-'
=177	=177
.	16ffq
.	16ee-q
.	16ddq
4BB- 4E- 4G	(8ee-L
.	8ggJ)
8BB- 8E- 8G	16r
.	16gg'
=178	=178
.	16ggq
.	16ffq
.	16eeq
4BB- 4D 4F	(8ffL
.	8bb-J)
8BB- 8D 8F	16r
.	16bb-'
=179	=179
.	16cccq
.	16bb-q
.	16aaq
4BB- 4D 4F	(8bb-L
.	8dddJ)
8BB- 8D 8F	16r
.	16ddd'
=180	=180
.	eeeq
4FF 4C 4F	8fff'
.	4ff
8BB- 8D 8F	.
=181	=181
.	eeeq
4FF 4C 4F	8fff'
.	4ff
8BB- 8D 8F	.
=182	=182
.	eeeq
8FF 8C 8F	8fff'
8r	(8.ffL
8r	.
.	16eeJk
=183	=183
4.r	16ee-LL
.	16cc
.	16a
.	16f
.	16e-
.	16cJJ)
=	=
*END	*END
*staff2	*staff1
*clefF4	*clefG2
*k[b-e-]	*k[b-e-]
*M3/8	*M3/8
=184	=184
4BB- 4D 4F 4B-	(16b-LL
.	16f
.	16d)
.	16dd'
8BB- 8D 8F 8B-	16b-'
.	16f'JJ
=185	=185
4BB- 4D 4F 4B-	(16ffLL
.	16dd
.	16b-)
.	16bb-'
8BB- 8D 8F 8B-	16ff'
.	16dd'JJ
=186	=186
4BB- 4E- 4F 4A	(16ee-LL
.	16cc
.	16a)
.	16aa'
8BB- 8E- 8F 8A	16ee-'
.	16cc'JJ
=187	=187
4BB- 4E- 4F 4A	(16cccLL
.	16aa
.	16ee-)
.	16eee-'
8BB- 8E- 8F 8A	16ccc'
.	16aa'JJ
=188	=188
4BB- 4E- 4F 4A	(16ee-LL
.	16cc
.	16a)
.	16aa'
8BB- 8E- 8F 8A	16ee-'
.	16cc'JJ
=189	=189
4BB- 4E- 4F 4A	(16cccLL
.	16aa
.	16ee-)
.	16eee-'
8BB- 8E- 8F 8A	16ccc'
.	16aa'JJ
=190	=190
4BB- 4D 4F 4B-	(16ffLL
.	16dd
.	16b-)
.	16bb-'
8BB- 8D 8F 8B-	16ff'
.	16dd'JJ
=191	=191
4BB- 4D 4F 4B-	(16dddLL
.	16bb-
.	16ff)
.	16fff'
8BB- 8D 8F 8B-	16ddd'
.	16bb-'JJ
=192	=192
4BB- 4E- 4G	(16aaLL
.	16bb-)
.	(16ff#
.	16gg)
8BB- 8E- 8G	(16dd
.	16ee-JJ)
=193	=193
4BB- 4E- 4G	(16aLL
.	16b-)
.	(16f#
.	16g)
8BB- 8E- 8G	(16aa
.	16bb-JJ)
=194	=194
4BB- 4D 4F	(16aaLL
.	16bb-)
.	(16ee
.	16ff)
8BB- 8D 8F	(16cc#
.	16ddJJ)
=195	=195
4BB- 4D 4F	(16aLL
.	16b-)
.	(16e
.	16f)
8BB- 8D 8F	(16ee
.	16ffJJ)
=196	=196
8FF 8C 8F	(16eLL
.	16f)
4BB- 4D 4F	(16ee
.	16ff)
.	(16e
.	16fJJ)
=197	=197
8FF 8C 8F	(16eeLL
.	16ff)
4BB- 4D 4F	(16e
.	16f)
.	(16ee
.	16ffJJ)
=198	=198
4FF 4C 4F	(16eeLL
.	16ffJJ)
.	(16bLL
.	16ccJJ)
8r	(16g#LL
.	16aJJ)
=199	=199
4.r	(16eLL
.	16fJJ)
.	(16BLL
.	16cJJ)
.	(16G#LL
.	16AJJ)
=	=
*END	*END
*staff2	*staff1
*clefF4	*clefG2
*k[b-e-]	*k[b-e-]
*M3/8	*M3/8
=200	=200
*^	*
4FF	[4.FF	(16fLL
.	.	16c
.	.	16A
.	.	16f
8F	.	16c
.	.	16AJJ)
=201	=201	=201
4F	4.FF]	(16fLL
.	.	16c
.	.	16A
.	.	16f
8F	.	16c
.	.	16AJJ)
=202	=202	=202
4E	[4.FF	(16gLL
.	.	16c
.	.	16B-
.	.	16a
8E-	.	16f
.	.	16cJJ)
=203	=203	=203
4D	4.FF]	(16b-LL
.	.	16f
.	.	16d
.	.	16cc
8C	.	16a
.	.	16e-JJ)
=204	=204	=204
4BB-	4BB-	(16ddLL
.	.	16b-
.	.	16f)
.	.	16ff'
8r	8r	16dd'
.	.	16b-'JJ
*v	*v	*
=205	=205
4.r	(16bb-LL
.	16ff
.	16dd)
.	16ddd'
.	16bb-'
.	16ff'JJ
*clefG2	*
=206	=206
8f	(16fffLL
.	16ddd
4ff	16bb-
.	16fff
.	16ddd
.	16bbJJ)
=207	=207
8f	(16fffLL
.	16eee-
4ee- 4ff	16ccc
.	16fff
.	16ccc
.	16aaJJ)
=208	=208
4b- 4dd	(16fffLL
.	16ddd
.	16bb-)
.	16ddd'
8r	16bb-'
.	16ff'JJ
*clefF4	*
=209	=209
4.r	(16bb-LL
.	16ff
.	16dd)
.	16ff'
.	16dd'
.	16b-'JJ
=210	=210
8F	(16ffLL
.	16dd
4f	16b-
.	16ff
.	16dd
.	16bJJ)
=211	=211
8F	(16ffLL
.	16ee-
4e- 4f	16cc
.	16ff
.	16cc
.	16aJJ)
=212	=212
16B-LL	4b-
16d	.
16c	.
16B-	.
16A	8r
16GJJ	.
=	=
*END	*END
*staff2	*staff1
*clefF4	*clefG2
*k[b-e-]	*k[b-e-]
*M3/8	*M3/8
=213	=213
16F#LL	8r
16E-	.
16D	8ddL
16C	.
16BB-	8ddJ
16AAJJ	.
=214	=214
16GGLL	4gg
16d	.
16B-	.
16d	.
.	aaq
16G	(32ggLLL
.	32ff#
16dJJ	32gg
.	32aaJJJ)
=215	=215
16GLL	4bb-'
16d	.
16B-	.
16d	.
16G	8gg'
16dJJ	.
=216	=216
16F#LL	4aa'
16d	.
16A	.
16d	.
16F#	(8cc#
16dJJ	.
=217	=217
16F#LL	4dd)
16d	.
16A	.
16d	.
*	*clefF4
16F#	(8C#
16dJJ	.
=218	=218
16F#LL	4D)
16d	.
16A	.
16d	.
*	*clefG2
.	bb-q
16F#	(32aaLLL
.	32gg
16dJJ	32aa
.	32bb-JJJ)
=219	=219
16F#LL	4ccc'
16d	.
16A	.
16d	.
16F#	8aa'
16dJJ	.
=220	=220
16GLL	4bb-'
16d	.
16B-	.
16d	.
16G	(8f#
16dJJ	.
=221	=221
16GLL	4g)
16d	.
16B-	.
16d	.
*	*clefF4
16G	(8FF#
16dJJ	.
=222	=222
16GLL	4GG)
16d	.
16B-	.
16d	.
*	*clefG2
.	cccq
16G	(32bb-LLL
.	32aa
16dJJ	32bb-
.	32cccJJJ)
=223	=223
16GLL	4ddd'
16d	.
16B-	.
16d	.
16G	8bb-'
16dJJ	.
=224	=224
16FLL	16.aa'LL
16d	.
.	(32aaJJk
16A	4ddd)
16d	.
16F	.
16dJJ	.
=225	=225
16GLL	16.gg'LL
16e	.
.	(32ggJJk
16B-	4bb-)
16e	.
16G	.
16eJJ	.
=226	=226
16ALL	16.ff'LL
16f	.
.	(32ffJJk
16d	4aa)
16f	.
16A	.
16fJJ	.
=227	=227
16ALL	16.ee'LL
16g	.
.	(32eeJJk
16c#	4aa)
16g	.
16A	.
16gJJ	.
=228	=228
4d 4f	16ddLL
.	16b-
.	16a
.	16g
8r	16f
.	16eJJ
=	=
*END	*END
*staff2	*staff1
*clefF4	*clefF4
*k[b-e-]	*k[b-e-]
*M3/8	*M3/8
=229	=229
8r	16dLL
.	16B-
8r	16A
.	16G
(8AAA	16F
.	16EJJ
=230	=230
4DD)	(16FLL
.	16A
.	16d
.	16A
EE-q	.
(32DDLLL	16F
32CC#	.
32DD	16AJJ
32EEJJJ)	.
=231	=231
4FF'	16dLL
.	16A
.	16F
.	16A
8DD'	16d
.	16AJJ)
*	*clefG2
=232	=232
4EE'	(16GLL
.	16A
.	16c#
.	16A
*clefG2	*
8g#	16G
.	16AJJ
=233	=233
4a	16c#LL
.	16A
.	16G
.	16A
*clefF4	*
(8AAA	16c#
.	16AJJ)
=234	=234
4EE)	(16GLL
.	16A
.	16c#
.	16A
FFq	.
(32EELLL	16G
32DD	.
32EE	16AJJ
32FFJJJ)	.
=235	=235
4GG'	16c#LL
.	16A
.	16G
.	16A
8EE'	16c#
.	16AJJ)
=236	=236
4FF'	(16dLL
.	16A
.	16F
.	16A
*clefG2	*
(8cc#	16d
.	16AJJ
=237	=237
4dd)	16FLL
.	16A
.	16d
.	16A
8r	16F
.	16AJJ)
*clefF4	*
=238	=238
4FF	(16e-LL
.	16c
.	16A
.	16c
*clefG2	*
(8dd	16e-
.	16cJJ
=239	=239
4ee-)	16ALL
.	16c
.	16e-
.	16c
8r	16A
.	16cJJ)
*clefF4	*
=240	=240
4FF	(16aLL
.	16e-
.	16c
.	16e-
*clefG2	*
(8gg#	16a
.	16e-JJ
=241	=241
8aa)	16cLL
.	16e-
8r	16a
.	16e-
(8bb	16c
.	16e-JJ)
=242	=242
8ccc)	(16aLL
.	16e-
8r	16c
.	16e-
(8ddd	16a
.	16e-JJ
=243	=243
8eee-)	16cLL
.	16e-
8r	16a
.	16e-
(8ddd	16c
.	16e-JJ)
=244	=244
8eee-)	(16aLL
.	16e-
8r	16c)
.	16cc'
8r	16a'
.	16e-'JJ
=245	=245
4.r	(16ee-LL
.	16cc
.	16a)
.	16aa'
.	16ee-'
.	16cc'JJ
=246	=246
4.r	(16cccLL
.	16aa
.	16ee-)
.	16eee-'
.	16ccc'
.	16aa'JJ
=247	=247
4.r	(16eee-LL
.	16ccc
.	16aa)
.	16eee-'
.	16ccc'
.	16aa'JJ
=248	=248
4.r	(16eee-LL
.	16ccc
.	16aa)
.	16eee-'
.	16ccc'
.	16aa'JJ
=249	=249
4.r	(16eee-LL
.	16ccc
.	16aa)
.	16eee-'
.	16ccc'
.	16aa'JJ
=250	=250
4.r	(16eee-LL
.	16ddd
.	16fff
.	16eee-
.	16ddd
.	16cccJJ
=251	=251
4.r	16bb-LL
.	16aa
.	16ccc
.	16bb-J
.	48aaLL
.	48bb-
.	48bbJJ
.	48cccLL
.	48ccc#
.	48dddJJJ)
=252	=252
4.r	(16eee-LL
.	16ddd
.	16fff
.	16eee-
.	16ddd
.	16cccJJ
=253	=253
4.r	16bb-LL
.	16aa
.	16ccc
.	16bb-J
.	48aaLL
.	48bb-
.	48bbJJ
.	48cccLL
.	48ccc#
.	48dddJJJ)
=254	=254
4.r	(16eee-LL
.	16ddd
.	16fff
.	16eee-
.	16ddd
.	16cccJJ
=255	=255
4.r	16bb-LL
.	16aa
.	16ccc
.	16bb
.	16ddd
.	16cccJJ
=256	=256
4.r	16bb-LL
.	16aa
.	16gg
.	16ff
.	16ee
.	16ffJJ
=257	=257
4.r	16ggLL
.	16ff
.	16ee-
.	16dd
.	16ff
.	16ee-JJ)
=258	=258
4.r	(16ddLL
.	16cc
.	16ee-
.	16dd
.	16cc
.	16b-JJ
=259	=259
4.r	16aLL
.	16b-
.	16b
.	16cc
.	16dd
.	16ccJJ
=260	=260
4.r	16b-LL
.	16a
.	16g
.	16f
.	16e
.	16fJJ
=261	=261
4.r	16gLL
.	16f
.	16e-
.	16d
.	16f
.	16e-JJ)
=262	=262
4.r	(16dLL
.	16c
.	16e-
.	16d
.	16c
.	16B-JJ
*	*clefF4
=263	=263
4.r	16ALL
.	16G
.	16F
.	16E
.	16G
.	16FJJ
=264	=264
4.r	16E-LL
.	16D
.	16F
.	16E-
.	16D
.	16CJJ
=265	=265
4.r	16BB-LL
.	16AA
.	16C
.	16BB-
.	16AA
.	16BB-JJ)
=266	=266
4.r	(16BBLL
.	16C
.	16C#
.	16D
.	16E-
.	16EJJ
=267	=267
4.r	16FLL
.	16F#
.	16G
.	16G#
.	16A
.	16B-JJ
*	*clefG2
=268	=268
4.r	16BLL
.	16c
.	16c#
.	16d
.	16e-
.	16eJJ
=269	=269
4.r	16fLL
.	16f#
.	16g
.	16a-
.	8aJJ)
=	=
*END	*END
*staff2	*staff1
*clefF4	*clefG2
*k[b-e-]	*k[b-e-]
*M3/8	*M3/8
=270	=270
*^	*
8F'	8BB-	16b-LL
.	.	16f
[4B-	8r	16d
.	.	16dd
.	8r	16b-
.	.	16fJJ
=271	=271	=271
8B-]	8BB-	16ffLL
.	.	16dd
[4d	8r	16b-
.	.	16bb-
.	8r	16ff
.	.	16ddJJ
=272	=272	=272
8d]	8F	16ee-LL
.	.	16cc
[4c	8r	16a
.	.	16aa
.	8r	16ee-
.	.	16ccJJ
=273	=273	=273
8cL]	4.r	16cccLL
.	.	16aa
8F'	.	16ee-
.	.	16eee-
8F'J	.	16ccc
.	.	16aaJJ
=274	=274	=274
8F'	8FF	16eee-LL
.	.	16ccc
[4c	8r	16aa
.	.	16eee-
.	8r	16ccc
.	.	16aaJJ
=275	=275	=275
8c]	8F	16ee-LL
.	.	16cc
[4f	8r	16a
.	.	16ee-
.	8r	16cc
.	.	16aJJ
=276	=276	=276
8f]	8B-	16ccLL
.	.	16b-
[4d	8r	16a
.	.	16b-
.	8r	16cc
.	.	16ddJJ
=277	=277	=277
8dL]	4.r	16ee-LL
.	.	16ee
8B-'	.	16ff
.	.	16gg
8B-'J	.	16aa
.	.	16bb-JJ
=278	=278	=278
8B-	8E-	16ggLL
.	.	16ee-
[4e-	8r	16b-
.	.	16gg
.	8r	16ee-
.	.	16b-JJ
=279	=279	=279
8e-]	8E-	16bb-LL
.	.	16gg
[4g	8r	16b-
.	.	16bb-
.	8r	16ee-
.	.	16b-JJ
=280	=280	=280
8g]	8B-	16bb-LL
.	.	16b-
[4f	8r	16dd
.	.	16ff
.	8r	16bb-
.	.	16ddJJ
=281	=281	=281
8fL]	4.r	16ffLL
.	.	16bb-
8d'	.	16ddd
.	.	16ff
8B-'J	.	16bb-
.	.	16dddJJ
*v	*v	*
=282	=282
8F 8c	16fff'LL
.	(16ee
4B- 4d-	16ff)
.	(16eee
.	16fff)
.	(16eeJJ
=283	=283
8F 8c	16ffLL)
.	(16eee
4B- 4d	16fff)
.	(16ee
.	16ff)
.	(16eeeJJ
=284	=284
4F 4c	16fffLL)
.	16ccc
.	16aa
.	16ff
8r	16cc
.	16aJJ
=285	=285
4.r	16fLL
.	16e
.	16e-
.	16d
.	16c
.	16fJJ
=	=
*END	*END
*staff2	*staff1
*clefF4	*clefG2
*k[b-e-]	*k[b-e-]
*M3/8	*M3/8
=286	=286
16BB-LL	8B-'
16B-	.
16F	[4d [4f [4b-
16D	.
16BB-	.
16FJJ	.
=287	=287
16DLL	8d] 8f] 8b-]
16BB-	.
16FF	[4f [4b- [4dd
16DD	.
16BBB-	.
16FFJJ	.
=288	=288
16FFFLL	8f] 8b-] 8dd]
16AAA	.
16CC	[4f [4a [4cc
16FF	.
16AA	.
16CJJ	.
=289	=289
16ELL	8fL] 8a] 8cc]
16F	.
16E	8f'
16F	.
16E	8f'J
16FJJ	.
=290	=290
16FLL	8f'
16e-	.
16c	[4f [4a [4cc
16A	.
16F	.
16cJJ	.
=291	=291
16ALL	8f] 8a] 8cc]
16F	.
16E-	[4f [4a [4cc [4ff
16C	.
16AA	.
16FFJJ	.
=292	=292
16BBB-LL	8f] 8a] 8cc] 8ff]
16DD	.
16FF	[4f [4b- [4dd
16BB-	.
16D	.
16FJJ	.
=293	=293
16ALL	8fL] 8b-] 8dd]
16B-	.
16A	8b-'
16B-	.
16A	8b-'J
16B-JJ	.
=294	=294
16E-LL	8g' 8b-'
16e-	.
16B-	[4g [4b- [4ee-
16G	.
16E-	.
16B-JJ	.
=295	=295
16GLL	8g] 8b-] 8ee-]
16E-	.
16BB-	[4g [4b- [4ee- [4gg
16G	.
16E-	.
16BB-JJ	.
=296	=296
16BBB-LL	8g] 8b-] 8ee-] 8gg]
16BB-	.
16D	[4f [4b- [4dd [4ff
16F	.
16BB-	.
16DJJ	.
=297	=297
16FLL	8f] 8b-] 8dd] 8ff]
16B-	.
16BB-	[4f [4b- [4dd
16D	.
16F	.
16B-JJ	.
=298	=298
16EE-LL	8f] 8b-] 8dd]
16E-	.
16D	[4g [4cc [4ee-
16E-	.
16EE-	.
16E-JJ	.
=299	=299
16FFLL	8g] 8cc] 8ee-]
16F	.
16E	4e- 4a 4cc
16F	.
16FF	.
16FJJ	.
=300	=300
4BB-	4d 4b-
8BB-^ 8B-^	8d^ 8f^
=301	=301
4BB- 4B-	4d 4f
8BB-^ 8B-^	8d^ 8f^
=302	=302
4BB- 4B-	4d 4f
8BB-^ 8B-^	8d^ 8f^
=303	=303
4BB- 4B-	4d 4f
8BB-^ 8B-^	8d^ 8f^
=304	=304
4BB- 4B-	4e- 4g-
8BB-^ 8B-^	8e-^ 8g-^
=305	=305
4BB- 4B-	4e- 4g-
8BB-^ 8B-^	8e-^ 8g-^
=306	=306
4BB- 4B-	4e- 4g-
8BB-^ 8B-^	8e-^ 8g-^
=307	=307
4BB- 4B-	4e- 4g-
8BB-^ 8B-^	8e-^ 8g-^
=308	=308
(4C-' 4c-'	(4e-' 4g-'
8C-') 8c-'	8e-') 8g-'
=309	=309
(4C-' 4c-'	(4e-' 4g-'
8C-') 8c-'	8e-') 8g-'
=310	=310
(4C-' 4c-'	(4e-' 4g-'
8C-') 8c-'	8e-') 8g-'
=311	=311
(4C-' 4c-'	(4e-' 4g-'
8C-') 8c-'	8e-') 8g-'
=	=
*END	*END
*staff2	*staff1
*clefF4	*clefG2
*k[b-e-]	*k[b-e-]
*M3/8	*M3/8
=312	=312
*	*^
4BB 4F# 4B	(8f#L	4d#
.	8b)	.
8BB 8F# 8B	8b'J	8d#
=313	=313	=313
.	cc#q	.
4BB 4F# 4B	(16bLL	4d#
.	16a#	.
.	16b	.
.	16cc#J)	.
8BB 8F# 8B	8dd#'J	8d#
=314	=314	=314
4BB 4F# 4A#	8b#'	8e
.	([4cc#	[4e
8BB 8F# 8A#	.	.
=315	=315	=315
4BB 4F# 4A#	8cc#L]	8eL]
.	8f#)	8e
8BB 8F# 8A#	8f#'J	8eJ
=316	=316	=316
4BB 4F# 4A#	(8f#L	4e
.	8cc#)	.
8BB 8F# 8A#	8cc#'J	8e
*	*v	*v
=317	=317
4BB 4E- 4F# 4A#	(16dd#LL
.	16cc#
.	16b#
.	16cc#J)
8BB 8E- 8F# 8A#	8ff#'J
=318	=318
4BB 4D# 4F# 4B	(16dd#LL
.	16f#
.	16d#
.	16dd#
8BB 8D# 8F#	16f#
.	16d#JJ
=319	=319
4BB 4D# 4F#	16dd#LL
.	16f#
.	16d#
.	16dd#
8BB 8D# 8F#	16f#
.	16d#JJ)
=320	=320
4BB- 4E- 4G-	(16gg-LL
.	16ee-
.	16g-
.	16gg-
8BB- 8E- 8G-	16ee-
.	16g-JJ
=321	=321
4BB- 4E- 4G-	16gg-LL
.	16ee-
.	16g-
.	16gg-
8BB- 8E- 8G-	16ee-
.	16g-JJ)
=322	=322
4AA 4E- 4G-	(16cccLL
.	16gg-
.	16cc
.	16ccc
8AA 8E- 8G-	16gg-
.	16ccJJ
=323	=323
4AA- 4E- 4G-	16cccLL
.	16gg-
.	16cc
.	16ccc
8AA- 8E- 8G-	16gg-
.	16ccJJ)
=324	=324
4AA- 4D- 4F	(16ddd-LL
.	16ff
.	16dd-
.	16ddd-
8AA- 8D- 8F	16ff
.	16dd-JJ
=325	=325
4AAn 4D- 4F	16ddd-LL
.	16ff
.	16dd-
.	16ddd-
8AA 8D- 8F	16ff
.	16dd-JJ)
=326	=326
4BB- 4D- 4F	(16ddd-LL
.	16ff
.	16dd-
.	16ddd-
8BB- 8D- 8F	16ff
.	16dd-JJ
=327	=327
4GG- 4BB- 4D- 4E	16eeeLL
.	16bb-
.	16ee
.	16eee
8GG- 8BB- 8D- 8E	16bb-
.	16eeJJ)
=328	=328
[4.FF [4.BB- [4.D [4.F	(16fffLL
.	16ddd
.	16bb-)
.	16ddd'
.	16bb-'
.	16ff'JJ
=329	=329
4.FF_ 4.BB-_ 4.D_ 4.F_	(16bb-LL
.	16ff
.	16dd)
.	16ff'
.	16dd'
.	16b-'JJ
=330	=330
4.FF_ 4.BB-_ 4.D_ 4.F_	(16ddLL
.	16b-
.	16f)
.	16b-'
.	16f'
.	16d'JJ
=331	=331
4.FF_ 4.BB-] 4.D] 4.F]	(16fLL
.	16d
.	16B-)
.	16d'
.	16B-'
.	16F'JJ
*	*clefF4
=332	=332
4FF]	16DLL
.	16B-
.	16A
.	16B-
16DDLL	16D
16BB-JJ	16B-JJ
=333	=333
16EE-LL	16E-LL
16BB-	16B-
16EE	16E
16BB-	16B-
16FF	16F
16BB-JJ	16B-JJ
=334	=334
16FF#LL	16F#LL
16BB-	16B-
16GG	16G
16BB-	16B-
16DD	16D
16BB-JJ	16B-JJ
=335	=335
16EE-LL	16E-LL
16BB-	16B-
16EE	16E
16BB-	16B-
16FF	16F
16BB-JJ	16B-JJ
=336	=336
16FF#LL	16F#LL
16BB-	16B-
16GG	16G
16BB-	16B-
16DD	16D
16BB-JJ	16B-JJ
=337	=337
16EE-LL	16E-LL
16BB-	16B-
16EE	16E
16BB-	16B-
16FF	16F
16BB-JJ	16B-JJ
=338	=338
16FF#LL	16F#LL
16BB-	16B-
16GG	16G
16BB-	16B-
16EE	16E
16BB-JJ	16B-JJ
=339	=339
16FF#LL	16F#LL
16BB-	16B-
16GG	16G
16BB-	16B-
16EE	16E
16BB-JJ	16B-JJ
=340	=340
4FF	24FLL
.	24F#
.	24GJ
.	24A-L
.	24A
.	24B-J
8r	24BL
.	24c
.	24c#JJ
*	*clefG2
=341	=341
4.r	24dLL
.	24e-
.	24eJ
.	24fL
.	24f#
.	24gJ
.	24a-L
.	24a
.	24b-JJ
=342	=342
4.r	24bLL
.	24cc
.	24cc#J
.	24ddL
.	24ee-
.	24eeJ
.	24ffL
.	24ff#
.	24ggJJ
=343	=343
4.r	24aa-LL
.	24aa
.	24bb-J
.	24bbL
.	24ccc
.	24ccc#J
.	48dddLL
.	48eee-
.	48eeeJJ
.	48fffLL
.	48ddd
.	48bb-JJJ
=344	=344
4.r	32cccLLL
.	32ddd
.	32ccc
.	32dddJJ
.	32cccLL
.	32ddd
.	32ccc
.	32dddJJ
.	32cccLL
.	32ddd
.	32ccc
.	32dddJJJ
*clefG2	*
=345	=345
8r	32cccLLL
.	32ddd
.	32ccc
.	32dddJJ
8r	32cccLL
.	32ddd
.	32ccc
.	32dddJJ
(32fLLL	32cccLL
32e	32ddd
32f	32ccc
32gJJJ)	32dddJJJ
=346	=346
8f	32cccLLL
.	32ddd
.	32ccc
.	32dddJJ
8r	32cccLL
.	32ddd
.	32ccc
.	32dddJJ
(32ffLLL	32cccLL
32ee	32ddd
32ff	32ccc
32ggJJJ)	32dddJJJ
=347	=347
8ff	32cccLLL
.	32ddd
.	32ccc
.	32dddJJ
8r	32cccLL
.	32ddd
.	32ccc
.	32dddJJ
(32ffLLL	32cccLL
32ee	32ddd
32ff	32ccc
32ggJJJ)	32dddJJJ
=348	=348
4ff	32cccLLL
.	32ddd
.	32ccc
.	32dddJJ
.	32cccLL
.	32ddd
.	32ccc
.	32dddJJ
8r	32cccLL
.	32ddd
.	32ccc
.	32dddJJJ
=349	=349
8r	32cccLLL
.	32ddd
.	32ccc
.	32dddJJ
8r	32cccLL
.	32ddd
.	32ccc
.	32dddJJ
(32e-LLL	32cccLL
32d	32ddd
32e-	32ccc
32fJJJ)	32dddJJJ
=350	=350
8e-	32cccLLL
.	32ddd
.	32ccc
.	32dddJJ
8r	32cccLL
.	32ddd
.	32ccc
.	32dddJJ
(32ee-LLL	32cccLL
32dd	32ddd
32ee-	32ccc
32ffJJJ)	32dddJJJ
=351	=351
8ee-	32cccLLL
.	32ddd
.	32ccc
.	32dddJJ
8r	32cccLL
.	32ddd
.	32ccc
.	32dddJJ
(32ee-LLL	32cccLL
32dd	32ddd
32ee-	32ccc
32ffJJJ)	32dddJJJ
=352	=352
4ee-	32cccLLL
.	32ddd
.	32ccc
.	32dddJJ
.	32cccLL
.	32ddd
.	32ccc
.	32dddJJ
8r	32cccLL
.	32ddd
.	32ccc
.	32dddJJJ
=353	=353
8r	32cccLLL
.	32ddd
.	32ccc
.	32dddJJ
8r	32cccLL
.	32ddd
.	32ccc
.	32dddJJ
(32ee-LLL	32cccLL
32dd	32ddd
32ee-	32ccc
32ffJJJ)	32dddJJJ
=354	=354
4ee-	32cccLLL
.	32ddd
.	32ccc
.	32dddJJ
.	32cccLL
.	32ddd
.	32ccc
.	32dddJJ
8r	32cccLL
.	32ddd
.	32ccc
.	32dddJJJ
=355	=355
8r	32cccLLL
.	32ddd
.	32ccc
.	32dddJJ
8r	32cccLL
.	32ddd
.	32ccc
.	32dddJJ
(32ee-LLL	32cccLL
32dd	32ddd
32ee-	32ccc
32ffJJJ)	32dddJJJ
=356	=356
16ee-LL	32cccLLL
.	32ddd
16dd	32ccc
.	32dddJJ
16cc	32cccLL
.	32ddd
16b-	32ccc
.	32dddJJ
16a	32cccLL
.	32ddd
16gJJ	32ccc
.	32dddJJJ
*clefF4	*
=357	=357
16fLL	32cccLLL
.	32ddd
16e-	32ccc
.	32dddJJ
16d	32cccLL
.	32ddd
16c	32ccc
.	32dddJJ
16B-	32cccLL
.	32ddd
16AJJ	32ccc
.	32dddJJJ
=358	=358
16GLL	32cccLLL
.	32ddd
16F	32ccc
.	32dddJJ
16E-	32cccLL
.	32ddd
16D	32ccc
.	32dddJJ
16C	32cccLL
.	32ddd
16BB-JJ	32ccc
.	32dddJJJ
=359	=359
16AALL	32cccLLL
.	32ddd
16GG	32ccc
.	32dddJJ
16FF	32cccLL
.	32ddd
16EE	32ccc
.	32dddJJ
16FF	32cccLL
.	32ddd
16GGJJ	32ccc
.	32dddJJJ
=360	=360
16AALL	32cccLLL
.	32ddd
16BB-	32ccc
.	32dddJJ
16BB	32cccLL
.	32ddd
16C	32ccc
.	32dddJJ
16C#	32cccLL
.	32ddd
16DJJ	32ccc
.	32dddJJJ
=361	=361
4.FF; 4.AA; 4.C; 4.E-;	4.ccc;
=	=
*END	*END
*staff2	*staff1
*clefF4	*clefG2
*k[b-e-]	*k[b-e-]
*M4/4	*M4/4
=362	=362
4BB- 4D 4F 4B-	4bb-
.	ccq
4r	(16b-LL
.	16a
.	16b-
.	16ccJJ)
4r	4b-'
4B-' 4f'	4b-' 4dd'
=363	=363
4F' 4f'	4a' 4cc'
.	ggq
4r	(16ffLL
.	16ee
.	16ff
.	16ggJJ)
2r	4ff'
.	4r
=364	=364
4FF' 4F'	4A' 4c'
4r	(16ccLL
.	16dd
.	16cc
.	16b-JJ)
4r	4a'
4F#' 4c'	4a' 4ee-'
=365	=365
4G' 4B-'	4b-' 4dd'
.	cccq
4r	(16bb-LL
.	16aa
.	16bb-
.	16cccJJ)
2r	4bb-'
.	4r
=366	=366
4E 4B- 4c	4r
.	aaq
4r	(16ggLL
.	16ff#
.	16gg
.	16aaJJ)
2r	4gg'
.	4r
=367	=367
4F 4B- 4d	4r
.	ggq
4r	(16ffLL
.	16ee
.	16ff
.	16ggJJ)
2r	4ff'
.	4r
=368	=368
4FF 4C 4E-	4r
.	gq
4r	(16fLL
.	16e
.	16f
.	16gJJ)
2r	4f'
.	4r
=369	=369
4BBB-'	1r
(16BBB-LL	.
16AAA	.
16BBB-	.
16CCJJ)	.
4BBB-'	.
(16BBB-LL	.
16AAA	.
16BBB-	.
16CCJJ)	.
=370	=370
4BBB-'	4a' 4ee-' 4ff'
(16BBB-LL	4a' 4ee-' 4ff'
16AAA	.
16BBB-	.
16CCJJ)	.
4BBB-'	4a' 4ee-' 4ff'
(16BBB-LL	4a' 4ee-' 4ff'
16AAA	.
16BBB-	.
16CCJJ)	.
=371	=371
4BBB-'	([4b- [4dd 4ff
(16BBB-LL	4b-]) 4dd] 4bb-
16AAA	.
16BBB-	.
16CCJJ)	.
4BBB-'	2r
(16BBB-LL	.
16AAA	.
16BBB-	.
16CCJJ)	.
=372	=372
4BBB-'	4A' 4e-' 4f'
(16BBB-LL	4A' 4e-' 4f'
16AAA	.
16BBB-	.
16CCJJ)	.
4BBB-'	4A' 4e-' 4f'
(16BBB-LL	4A' 4e-' 4f'
16AAA	.
16BBB-	.
16CCJJ)	.
=373	=373
4BBB-	8B-'L 8d' 8f'
.	(16cL
.	16dJJ
4r	16e-LL
.	16f
.	16g
.	16aJJ)
4BB- 4D 4F 4B-	8b-'L
.	(16ccL
.	16ddJJ
4r	16ee-LL
.	16ff
.	16gg
.	16aaJJ)
=374	=374
4BBB-' 4BB-'	4bb-'
4BB-' 4D' 4F' 4B-'	4d' 4f' 4b-'
2r	2r
==	==
*-	*-
